!!!COM:	Bach, Johann Sebastian
!!!CDT:	1685/02/21/-1750/07/28/
!!!OTL@@DE:	Hast du denn, Jesu, dein Angesicht
!!!SCT:	BWV 57/8
!!!PC#:	90
!!!AGN:	chorale
**kern	**kern	**kern	**kern
*ICvox	*ICvox	*ICvox	*ICvox
*Ibass	*Itenor	*Ialto	*Isoprn
*I"Bass	*I"Tenor	*I"Alto	*I"Soprano
*>[A,A,B]	*>[A,A,B]	*>[A,A,B]	*>[A,A,B]
*>norep[A,B]	*>norep[A,B]	*>norep[A,B]	*>norep[A,B]
*>A	*>A	*>A	*>A
*	*oclefC4	*oclefC3	*oclefC1
*clefF4	*clefGv2	*clefG2	*clefG2
*k[b-e-]	*k[b-e-]	*k[b-e-]	*k[b-e-]
*B-:	*B-:	*B-:	*B-:
*M3/4	*M3/4	*M3/4	*M3/4
*MM100	*MM100	*MM100	*MM100
=1-	=1-	=1-	=1-
4B-	4d	4f	4b-
4B-	4d	4f	4b-
4A	4c	4f	4ff
=2	=2	=2	=2
4.B-	4.B-	4.f	4.dd
8A	8c	8f	8cc
4G	8dL	4g	4b-
.	8eJ	.	.
=3	=3	=3	=3
4F	4f	4c	4a
4C	4f	4c	8b-L
.	.	.	8a
4E-	4A	4c	8g
.	.	.	8fJ
=4	=4	=4	=4
4D	4B-	4f	4b-
4C	4E-	8gL	4cc
.	.	8a	.
4BB-	4F	8b-	8ddL
.	.	8ccJ	8ee-J
=5	=5	=5	=5
2F	4f	2a	2cc
.	4e-	.	.
4BB-;	4d;	4f;	4b-;
=6:|!	=6:|!	=6:|!	=6:|!
*>B	*>B	*>B	*>B
4BB-	4d	4b-	4ff
4C	4e-	4a	8ee-L
.	.	.	8dd
4D	4f	4f	8cc
.	.	.	8b-J
=7	=7	=7	=7
2E-;	2e-;	2b-;	2gg;
4r	4ry	4ry	4r
=8	=8	=8	=8
4B-	4f	4b-	4dd
8AL	4g	4b-	4ee-
8G	.	.	.
8F	4c	8aL	4ff
8E-J	.	8gJ	.
=9	=9	=9	=9
4D	4c	4f	4ff
4D	4B-	4b-	8ggL
.	.	.	8ff
4E-	4B-	4g	8ee-
.	.	.	8ddJ
=10	=10	=10	=10
2F;	2f;	2a;	2cc;
4r	4ry	4ry	4r
=11	=11	=11	=11
4D	4B-	4f	4f
4E	8AL	4c	4g
.	8GJ	.	.
4F#	4e-	4c	4a
=12	=12	=12	=12
4G	4d	4B-	4b-
4A	4c	4f	4cc
4B-	4B-	4f	8ddL
.	.	.	8ee-J
=13	=13	=13	=13
2F	4B-	4.f	2cc
.	4A	.	.
.	.	8e-	.
4BB-;	4F;	4d;	4b-;
==	==	==	==
*-	*-	*-	*-
!!!YOR1: 371 vierstimmige Choralges&auml;nge von Johann Sebastian Bach, 
!!!YOR2: 4th ed. by Alfred D&ouml;rffel (Leipzig: Breitkopf und H&auml;rtel, 
!!!YOR2: c.1875). 178 pp. Plate "V.A.10".  reprint: J.S. Bach, 371 Four-Part 
!!!YOR4: Chorales (New York: Associated Music Publishers, Inc., c.1940).
!!!SMS: B&H, 4th ed, Alfred D&ouml;rffel, c.1875, plate V.A.10
!!!EED:  Craig Stuart Sapp
!!!EEV:  2009/05/22
